src/svg/milestone.svg

<svg height="16" width="14" xmlns="http://www.w3.org/2000/svg" viewBox="0 0 14 16">
  <path d="M8 2H6V0h2v2z m4 5H2c-0.55 0-1-0.45-1-1V4c0-0.55 0.45-1 1-1h10l2 2-2 2zM8 4H6v2h2V4z m-2 12h2V8H6v8z" />
</svg>

<?xml version="1.0" encoding="UTF-8" standalone="no"?>
<svg width="14px" height="16px" viewBox="0 0 14 16" version="1.1" xmlns="http://www.w3.org/2000/svg" xmlns:xlink="http://www.w3.org/1999/xlink">
    <!-- Generator: Sketch 3.7.1 (28215) - http://www.bohemiancoding.com/sketch -->
    <title>milestone</title>
    <desc>Created with Sketch.</desc>
    <defs></defs>
    <g id="Octicons" stroke="none" stroke-width="1" fill="none" fill-rule="evenodd">
        <g id="milestone" fill="#000000">
            <path d="M8,2 L6,2 L6,0 L8,0 L8,2 L8,2 Z M12,7 L2,7 C1.45,7 1,6.55 1,6 L1,4 C1,3.45 1.45,3 2,3 L12,3 L14,5 L12,7 L12,7 Z M8,4 L6,4 L6,6 L8,6 L8,4 L8,4 Z M6,16 L8,16 L8,8 L6,8 L6,16 L6,16 Z" id="Shape"></path>
        </g>
    </g>
</svg>
